src/assets/icons/person.svg

<svg width="142" height="159" viewBox="0 0 142 159" fill="none" xmlns="http://www.w3.org/2000/svg">
<g clip-path="url(#clip0_6_55)">
<path d="M55.3429 71.7103L33.626 90.6925L37.1288 154.669H69.3537L100.178 89.9894L77.0597 71.7103H55.3429Z" fill="#959595"/>
<path d="M82.4399 72.2587L82.3698 72.329C82.3838 72.343 82.3978 72.3571 82.4118 72.3712L82.4399 72.2587ZM142 159C139.87 131.891 136.83 106.131 132.206 100.437C125.859 92.5906 91.4769 82.8746 91.4769 82.8746C91.4769 82.8746 82.5379 106.3 82.0476 107.959C81.7533 108.803 76.8075 104.374 76.5273 105.217C73.3468 117.549 66.2153 138.541 63.9455 150.788L63.8895 106.412L68.7232 100.071L62.9227 94.8123L82.9443 75.5067C82.9162 75.4927 82.2998 72.2727 82.2717 72.2587C81.8234 64.8345 83.5327 58.5072 84.2192 56.2715C86.8533 57.073 89.7535 47.9334 90.7763 44.84C91.7991 41.7466 89.7395 39.4266 89.7395 39.4266C89.8656 38.9063 89.7395 38.822 91.2807 36.3332C92.5697 34.2803 90.5101 19.3196 88.9689 14.6795C87.4277 10.0394 83.5747 7.19915 76.8916 4.62602C70.2504 2.06694 61.2555 0 56.8841 0C52.5127 0 50.9855 2.32004 49.6965 3.61364C49.6965 3.61364 46.6141 4.11983 44.3023 4.11983C41.9905 4.11983 38.5439 7.55067 36.3021 10.8128C32.7294 15.9872 32.7294 27.3343 33.0516 30.6808C33.8362 38.7939 35.0552 40.2281 35.7277 40.3546C35.1953 40.5374 34.3546 40.8749 33.8082 41.3811C31.9167 43.1105 36.12 53.7827 36.8906 55.0623C37.6612 56.3559 38.4038 56.4683 38.4038 56.4683C38.4038 56.4683 39.6087 59.8429 40.1971 61.6287C41.1779 64.5393 44.0361 66.4234 44.0501 66.5218C44.1622 67.6748 46.5721 73.3695 47.3006 79.5141C46.9644 79.7672 46.5441 80.1187 46.0677 80.5124L46.1097 80.7936L57.6967 95.2763L52.5127 100.24L55.5811 106.412L49.6124 150.099L44.1482 105.906L40.3933 108.986L38.6279 86.3758L37.0587 87.5287C29.8992 91.2549 6.57109 103.038 4.59556 109.984C3.46068 113.963 1.34504 136.348 0 159H142Z" fill="#959595"/>
<path d="M82.608 74.8318C80.044 73.1164 50.0608 77.1097 50.0608 77.1097L47.5808 77.2784L34.1865 89.1036L34.5227 90.6503L36.232 91.1705L37.3109 88.4287L46.7542 80.0906L55.8613 88.4287L70.5446 87.5147L82.4819 76.4348L91.1266 83.5214L91.6029 86.3758L95.4419 85.3493C95.4699 85.3353 85.172 76.5473 82.608 74.8318Z" fill="#959595"/>
</g>
<defs>
<clipPath id="clip0_6_55">
<rect width="142" height="159" fill="white"/>
</clipPath>
</defs>
</svg>

<svg xmlns="http://www.w3.org/2000/svg" width="142" height="159" fill="none"><g fill="#959595" clip-path="url(#a)"><path d="M55.343 71.71 33.626 90.693l3.503 63.976h32.225l30.824-64.68L77.06 71.71H55.343Z"/><path d="m82.44 72.259-.07.07.042.042.028-.112ZM142 159c-2.13-27.109-5.17-52.869-9.794-58.563-6.347-7.846-40.73-17.562-40.73-17.562s-8.938 23.425-9.428 25.084c-.295.844-5.24-3.585-5.52-2.742-3.181 12.332-10.313 33.324-12.583 45.571l-.056-44.376 4.834-6.341-5.8-5.259 20.021-19.305c-.028-.014-.644-3.234-.672-3.248-.449-7.424 1.26-13.752 1.947-15.987 2.634.801 5.535-8.339 6.557-11.432 1.023-3.093-1.036-5.413-1.036-5.413.126-.52 0-.605 1.54-3.094 1.29-2.053-.77-17.013-2.311-21.653-1.541-4.64-5.394-7.48-12.077-10.054C70.25 2.066 61.256 0 56.884 0c-4.371 0-5.898 2.32-7.188 3.614 0 0-3.082.506-5.394.506-2.312 0-5.758 3.43-8 6.693-3.573 5.174-3.573 16.521-3.25 19.868.784 8.113 2.003 9.547 2.676 9.674-.533.182-1.373.52-1.92 1.026-1.891 1.73 2.312 12.402 3.083 13.681.77 1.294 1.513 1.406 1.513 1.406s1.205 3.375 1.793 5.16c.98 2.911 3.84 4.795 3.853 4.894.112 1.153 2.522 6.847 3.25 12.992-.336.253-.756.605-1.232.998l.042.282 11.587 14.482-5.184 4.964 3.068 6.172-5.969 43.687-5.464-44.193-3.755 3.08-1.765-22.61-1.57 1.153C29.9 91.255 6.572 103.038 4.597 109.984 3.46 113.963 1.345 136.348 0 159h142Z"/><path d="M82.608 74.832c-2.564-1.716-32.547 2.278-32.547 2.278l-2.48.168-13.395 11.826.337 1.546 1.709.52 1.079-2.741 9.443-8.338 9.107 8.338 14.684-.914 11.937-11.08 8.645 7.086.476 2.855 3.839-1.027c.028-.014-10.27-8.802-12.834-10.517Z"/></g><defs><clipPath id="a"><path fill="#fff" d="M0 0h142v159H0z"/></clipPath></defs></svg>
